images/logo.svg

<?xml version="1.0" encoding="UTF-8" standalone="no"?>
<svg
   xmlns:dc="http://purl.org/dc/elements/1.1/"
   xmlns:cc="http://creativecommons.org/ns#"
   xmlns:rdf="http://www.w3.org/1999/02/22-rdf-syntax-ns#"
   xmlns:svg="http://www.w3.org/2000/svg"
   xmlns="http://www.w3.org/2000/svg"
   xmlns:sodipodi="http://sodipodi.sourceforge.net/DTD/sodipodi-0.dtd"
   xmlns:inkscape="http://www.inkscape.org/namespaces/inkscape"
   width="761.46527"
   height="228.99902"
   viewBox="0 0 609.17222 183.19922"
   version="1.1"
   id="svg3095"
   inkscape:version="0.48.4 r9939"
   sodipodi:docname="logo.svg">
  <metadata
     id="metadata3113">
    <rdf:RDF>
      <cc:Work
         rdf:about="">
        <dc:format>image/svg+xml</dc:format>
        <dc:type
           rdf:resource="http://purl.org/dc/dcmitype/StillImage" />
      </cc:Work>
    </rdf:RDF>
  </metadata>
  <defs
     id="defs3111" />
  <sodipodi:namedview
     pagecolor="#ffffff"
     bordercolor="#666666"
     borderopacity="1"
     objecttolerance="10"
     gridtolerance="10"
     guidetolerance="10"
     inkscape:pageopacity="0"
     inkscape:pageshadow="2"
     inkscape:window-width="1365"
     inkscape:window-height="671"
     id="namedview3109"
     showgrid="false"
     fit-margin-left="20"
     fit-margin-right="20"
     fit-margin-bottom="20"
     fit-margin-top="20"
     inkscape:zoom="0.92655371"
     inkscape:cx="362.90869"
     inkscape:cy="114.87305"
     inkscape:window-x="0"
     inkscape:window-y="0"
     inkscape:window-maximized="0"
     inkscape:current-layer="svg3095" />
  <g
     id="surface2"
     transform="translate(-6.4492188,-53.699219)">
    <path
       style="fill:#8cbd30;fill-opacity:1;fill-rule:evenodd;stroke:none"
       d="m 22.449219,146.35156 c 1.765625,9.4336 4.167969,17.33203 7.199219,23.69922 3.066406,6.36719 6.636718,11.5 10.703124,15.39844 4.066407,3.93359 8.5,6.94922 13.296876,9.05078 4.835937,2.13281 9.886718,3.66797 15.152343,4.60156 5.300781,0.9336 10.699219,1.58203 16.199219,1.94922 5.464844,0.39844 10.917969,0.83203 16.35156,1.30078 5.4336,0.46485 10.6836,1.28125 15.75,2.44922 5.06641,1.16406 9.83203,3.01563 14.29688,5.55078 4.46875,2.53125 8.5,6.04688 12.10156,10.54688 -2.80078,-8.06641 -5.91797,-14.75 -9.35156,-20.04688 -3.46485,-5.33594 -7.23047,-9.63672 -11.29688,-12.90234 -4.03515,-3.26563 -8.36718,-5.84766 -13,-7.75 -4.63672,-1.89844 -9.53515,-3.44922 -14.703122,-4.64844 -5.164063,-1.23437 -10.566407,-2.46875 -16.199219,-3.69922 -5.664063,-1.20312 -11.53125,-2.76953 -17.597657,-4.70312 -6.101562,-1.9336 -12.402343,-4.53125 -18.902343,-7.79688 -6.464844,-3.30078 -13.132813,-7.63672 -20,-13"
       id="path3098"
       inkscape:connector-curvature="0" />
    <path
       style="fill:#197061;fill-opacity:1;fill-rule:evenodd;stroke:none"
       d="m 37.5,104.25 c 0.433594,8.93359 1.617188,16.51563 3.550781,22.75 1.898438,6.23437 4.398438,11.39844 7.5,15.5 3.132813,4.13281 6.699219,7.48437 10.699219,10.05078 4,2.59766 8.300781,4.71484 12.898438,6.34766 4.636718,1.63672 9.402343,3.0664 14.300781,4.30078 4.933593,1.26562 9.882812,2.61719 14.851561,4.05078 4.96485,1.43359 9.80078,3.25 14.5,5.44922 4.73438,2.19922 9.16406,5.08594 13.30078,8.65234 4.16406,3.53125 7.91406,8.03125 11.25,13.5 -1.13672,-9.40234 -2.98437,-17.41797 -5.55078,-24.05078 -2.56641,-6.60156 -5.68359,-12.11719 -9.35156,-16.55078 -3.69922,-4.43359 -7.80078,-8.11719 -12.30078,-11.05078 -4.53125,-2.89844 -9.33203,-5.36719 -14.39844,-7.39844 -5.066406,-2 -10.265625,-3.88281 -15.601562,-5.65234 -5.332032,-1.79688 -10.664063,-3.76563 -16,-5.89844 -5.296876,-2.16797 -10.464844,-4.83203 -15.5,-8 -5,-3.16797 -9.714844,-7.16797 -14.148438,-12"
       id="path3100"
       inkscape:connector-curvature="0" />
    <path
       style="fill:#5c3351;fill-opacity:1;fill-rule:evenodd;stroke:none"
       d="m 71.601562,69.699219 c -0.96875,7.902343 -1.019531,14.71875 -0.152343,20.449219 0.902343,5.734374 2.5,10.617192 4.800781,14.652342 2.300781,4.03125 5.101562,7.5 8.398438,10.39844 3.300781,2.86719 6.886718,5.41797 10.75,7.65234 3.867187,2.23047 7.816402,4.41407 11.851562,6.54688 4.03516,2.10156 7.94922,4.41797 11.75,6.95312 3.76563,2.5 7.19922,5.46485 10.30078,8.89844 3.06641,3.43359 5.59766,7.58203 7.59766,12.44922 -0.16407,-8.83203 -1.13282,-16.46485 -2.89844,-22.89844 -1.80078,-6.40234 -4.19922,-11.90234 -7.19922,-16.5 -2.96875,-4.5664 -6.33594,-8.51562 -10.10156,-11.85156 -3.80078,-3.33203 -7.76563,-6.34766 -11.89844,-9.050782 C 100.66797,94.734375 96.566406,92.082031 92.5,89.449219 88.433594,86.851562 84.601562,83.964844 81,80.800781 77.433594,77.667969 74.300781,73.964844 71.601562,69.699219"
       id="path3102"
       inkscape:connector-curvature="0" />
  </g>
  <g
     id="surface4"
     transform="translate(6.5800512,-50.324099)">
    <text
       style="font-size:44px;fill:#006666;font-family:Helvetica"
       font-size="44"
       id="text3105"
       x="152.10001"
       y="179.45004">
      <tspan
         style="font-size:56px"
         id="tspan3115">Longvity® Center</tspan>
    </text>
  </g>
</svg>

<svg width="540pt" height="290pt" viewBox="0 0 540 290" version="1.1" xmlns="http://www.w3.org/2000/svg" xmlns:xlink="http://www.w3.org/1999/xlink">
  <g id="surface2">
    <path style=" stroke:none;fill-rule:evenodd;fill:rgb(55.686152%,74.901796%,19.999956%);fill-opacity:1;" d="M 22.449219 146.351562 C 24.214844 155.785156 26.617188 163.683594 29.648438 170.050781 C 32.714844 176.417969 36.285156 181.550781 40.351562 185.449219 C 44.417969 189.382812 48.851562 192.398438 53.648438 194.500000 C 58.484375 196.632812 63.535156 198.167969 68.800781 199.101562 C 74.101562 200.035156 79.500000 200.683594 85.000000 201.050781 C 90.464844 201.449219 95.917969 201.882812 101.351562 202.351562 C 106.785156 202.816406 112.035156 203.632812 117.101562 204.800781 C 122.167969 205.964844 126.933594 207.816406 131.398438 210.351562 C 135.867188 212.882812 139.898438 216.398438 143.500000 220.898438 C 140.699219 212.832031 137.582031 206.148438 134.148438 200.851562 C 130.683594 195.515625 126.917969 191.214844 122.851562 187.949219 C 118.816406 184.683594 114.484375 182.101562 109.851562 180.199219 C 105.214844 178.300781 100.316406 176.750000 95.148438 175.550781 C 89.984375 174.316406 84.582031 173.082031 78.949219 171.851562 C 73.285156 170.648438 67.417969 169.082031 61.351562 167.148438 C 55.250000 165.214844 48.949219 162.617188 42.449219 159.351562 C 35.984375 156.050781 29.316406 151.714844 22.449219 146.351562 "/>
    <path style=" stroke:none;fill-rule:evenodd;fill:rgb(10.588212%,44.705784%,38.823444%);fill-opacity:1;" d="M 37.500000 104.250000 C 37.933594 113.183594 39.117188 120.765625 41.050781 127.000000 C 42.949219 133.234375 45.449219 138.398438 48.550781 142.500000 C 51.683594 146.632812 55.250000 149.984375 59.250000 152.550781 C 63.250000 155.148438 67.550781 157.265625 72.148438 158.898438 C 76.785156 160.535156 81.550781 161.964844 86.449219 163.199219 C 91.382812 164.464844 96.332031 165.816406 101.300781 167.250000 C 106.265625 168.683594 111.101562 170.500000 115.800781 172.699219 C 120.535156 174.898438 124.964844 177.785156 129.101562 181.351562 C 133.265625 184.882812 137.015625 189.382812 140.351562 194.851562 C 139.214844 185.449219 137.367188 177.433594 134.800781 170.800781 C 132.234375 164.199219 129.117188 158.683594 125.449219 154.250000 C 121.750000 149.816406 117.648438 146.132812 113.148438 143.199219 C 108.617188 140.300781 103.816406 137.832031 98.750000 135.800781 C 93.683594 133.800781 88.484375 131.917969 83.148438 130.148438 C 77.816406 128.351562 72.484375 126.382812 67.148438 124.250000 C 61.851562 122.082031 56.683594 119.417969 51.648438 116.250000 C 46.648438 113.082031 41.933594 109.082031 37.500000 104.250000 "/>
    <path style=" stroke:none;fill-rule:evenodd;fill:rgb(36.470508%,20.784268%,32.548948%);fill-opacity:1;" d="M 71.601562 69.699219 C 70.632812 77.601562 70.582031 84.417969 71.449219 90.148438 C 72.351562 95.882812 73.949219 100.765625 76.250000 104.800781 C 78.550781 108.832031 81.351562 112.300781 84.648438 115.199219 C 87.949219 118.066406 91.535156 120.617188 95.398438 122.851562 C 99.265625 125.082031 103.214844 127.265625 107.250000 129.398438 C 111.285156 131.500000 115.199219 133.816406 119.000000 136.351562 C 122.765625 138.851562 126.199219 141.816406 129.300781 145.250000 C 132.367188 148.683594 134.898438 152.832031 136.898438 157.699219 C 136.734375 148.867188 135.765625 141.234375 134.000000 134.800781 C 132.199219 128.398438 129.800781 122.898438 126.800781 118.300781 C 123.832031 113.734375 120.464844 109.785156 116.699219 106.449219 C 112.898438 103.117188 108.933594 100.101562 104.800781 97.398438 C 100.667969 94.734375 96.566406 92.082031 92.500000 89.449219 C 88.433594 86.851562 84.601562 83.964844 81.000000 80.800781 C 77.433594 77.667969 74.300781 73.964844 71.601562 69.699219 "/>
  </g>
  <g id="surface4">
    <text style="fill:rgb(0,102,102)" font-family="Helvetica" font-size="44" transform="matrix(1,0,0,1,152.1,166.65)"><![CDATA[Longvity® Center]]></text>
    <text style="fill:rgb(27,114,99)" font-family="Helvetica" font-size="24" transform="matrix(1,0,0,1,154.6,203.45000000000002)"><![CDATA[5000 Jahre Kultur des Heilens]]></text>
  </g>
</svg>
